modules/hawcons-stroke/icons/mail-envelope-closed.svg

<?xml version="1.0" encoding="UTF-8" standalone="no"?>
<svg width="32px" height="32px" viewBox="0 0 32 32" version="1.1" xmlns="http://www.w3.org/2000/svg" xmlns:xlink="http://www.w3.org/1999/xlink" xmlns:sketch="http://www.bohemiancoding.com/sketch/ns">
    <!-- Generator: Sketch 3.0.3 (7891) - http://www.bohemiancoding.com/sketch -->
    <title>icon 6 mail envelope closed</title>
    <desc>Created with Sketch.</desc>
    <defs></defs>
    <g id="Page-1" stroke="none" stroke-width="1" fill="none" fill-rule="evenodd" sketch:type="MSPage">
        <g id="icon-6-mail-envelope-closed" sketch:type="MSArtboardGroup" fill="#929292">
            <path d="M5.31500722,9.27391933 C5.12106043,9.45739405 5,9.71770487 5,10.0068455 L5,21.9931545 C5,22.2828882 5.11915965,22.5440384 5.31310687,22.7277332 L5.31310687,22.7277332 L13.05,16 L5.31500722,9.27391933 L5.31500722,9.27391933 L5.31500722,9.27391933 Z M27.6868931,9.27226685 C27.8808404,9.45596162 28,9.71711185 28,10.0068455 L28,21.9931545 C28,22.2822951 27.8789396,22.542606 27.6849928,22.7260807 L19.95,16 L27.6868931,9.27226685 L27.6868931,9.27226685 Z M19.2018297,16.6505829 L26.5,23 L6.5,23 L13.7981703,16.6505829 L16.5,19 L19.2018297,16.6505829 L19.2018297,16.6505829 Z M6.00359486,8 C4.89703997,8 4,8.89451376 4,9.99406028 L4,22.0059397 C4,23.1072288 4.88976324,24 6.00359486,24 L26.9964051,24 C28.10296,24 29,23.1054862 29,22.0059397 L29,9.99406028 C29,8.8927712 28.1102368,8 26.9964051,8 L6.00359486,8 L6.00359486,8 Z M16.5,17.7000122 L26.5,9 L6.5,9 L16.5,17.7000122 L16.5,17.7000122 Z" id="mail-envelope-closed" sketch:type="MSShapeGroup"></path>
        </g>
    </g>
</svg>

<svg width="32" height="32" xmlns="http://www.w3.org/2000/svg"><path d="M5.315 9.274a1.006 1.006 0 0 0-.315.733v11.986c0 .29.12.551.313.735L13.05 16 5.315 9.274zm22.372-.002c.194.184.313.445.313.735v11.986c0 .29-.121.55-.315.733L19.95 16l7.737-6.728zm-8.485 7.379L26.5 23h-20l7.298-6.35L16.5 19l2.702-2.35zM6.004 8A2 2 0 0 0 4 9.994v12.012C4 23.107 4.89 24 6.004 24h20.992A2 2 0 0 0 29 22.006V9.994C29 8.893 28.11 8 26.996 8H6.004zM16.5 17.7l10-8.7h-20l10 8.7z" fill="#929292" fill-rule="evenodd"/></svg>
